X:1
T:Tharaw, 77.77.77
T:Tharaw, 77.77.77
T:Arranged by H. Lamson, 1881
T:Public Domain Courtesy of the Cyber Hymnal™
C:Arranged by H. Lamson, 1881
Z:Public Domain
Z:Courtesy of the Cyber Hymnal™
%%score ( 1 2 ) ( 3 4 )
L:1/8
Q:1/4=120
M:3/4
K:Ab
V:1 treble 
V:2 treble 
V:3 bass 
V:4 bass 
V:1
|: ([CE]3 [DF]) [CE]2 | (E2 A2) [EA]2 | ([DB]3 [Ec]) [DB]2 | [CA]4 z2 | [EG]4 [EG]2 | %5
 ([EB]3 [=DA]) [EG]2 | (F3 G) [_DF]2 | E4 z2 :| E4 [EF]2 | (G2 E2) [EF]2 | [EG]4 [EA]2 | [EB]6 | %12
 (A2 B2) [Ec]2 | (d3 c) [FB]2 | (A2 B2) [DG]2 | [CA]6 |] %16
V:2
|: x6 | C4 x2 | x6 | x6 | x6 | x6 | =D4 x2 | E4 x2 :| E4 x2 | E4 x2 | x6 | x6 | E4 x2 | F4 x2 | %14
 E4 x2 | x6 |] %16
V:3
|: [A,,A,]4 [A,,A,]2 | [A,,A,]4 [C,A,]2 | [E,G,]4 [E,G,]2 | [A,,A,]4 z2 | [E,B,]4 [E,B,]2 | %5
 B,4 [E,B,]2 | (A,3 B,) [B,,A,]2 | [E,G,]4 z2 :| [E,G,]4 [E,A,]2 | (B,2 G,2) [E,A,]2 | %10
 ([E,B,]2 [A,C]2) (CA,) | [E,G,]6 | ([C,A,]2 [B,,G,]2) [A,,A,]2 | (A,3 =A,) [D,B,]2 | %14
 (C2 D2) [E,B,]2 | [A,,A,]6 |] %16
V:4
|: x6 | x6 | x6 | x6 | x6 | (G,3 F,) x2 | B,,4 x2 | x6 :| x6 | E,4 x2 | x4 A,2 | x6 | x6 | D,4 x2 | %14
 E,4 x2 | x6 |] %16

